X: 22801
T: Lanigan's Ball
R: jig
M: 6/8
K: Gmajor
BAB G2 B|dBG A3|BAB G2B|AFD AFD|
BAB G2 B|dBG A3|B2 d c2 A|BGE ~E2 D:|
|:e2 f g2 e|~a2 g fed|e2 f g2 e|fdB B^cd|
e2 f g2 e|~a2 g fed|e2 B ~B2 A|BGE ~E2 D:|

